!!!OTL: JUNGFER LIESCHEN SCHLIEF DA DROBEN
!!!ARE: Europa, Mitteleuropa, Deutschland, Hessen, Lahn - Kreis; Wetterau;
!!    Frankreich, Elsass
!!!SCT: E1732A
!!!YEM: Copyright 1995, estate of Helmut Schaffrath.
**kern
*ICvox
*Ivox
*M3/4
*k[f#]
*G:
{8g
8b
=1
4dd
4b
8dd
8ee
=2
8dd
8cc
4a}
{4dd
=3
4b
4b
8dd
8b
=4
2a}
{8b
8a
=5
4g
4b
4a
=6
4b
4dd}
{8cc
8ee
=7
4dd
4b
4a
=8
2g}
==
!!!AGN: Scherz - Lied
!!!ONB: ESAC (Essen Associative Code) Database: ERK3
!!!AMT: simple triple
!!!AIN: vox
!!!EED: Helmut Schaffrath
!!!EEV: 1.0
*-
